X:7105
T:The Morning Dew
O:england
C:Trad
R:Reel
M:C|
K:EDor
L:1/8
E3 B BAFD|E3 B AGFD|E3 B BAFA|BcdB ADFA|
E3 B BAFD|EBEB AGFD|E3 B BAFA|BcdB ADFA||
RB eB fBeB|BcdB ADFA|RB eB fBeB|dcdB ADFA|
RB eB fBeB|BcdB ADFA|Bdef gfge|dcdB ADFA||
B2 GB EFGA|BEGB ADFA|B2 GB EFGA|BcdB ADFA|
B2 GB EFGA|BEGB ADFA|BAGF EFGA|BcdB AGFD||E2
